-- 01 Intro

d1 $ s "bd*4"

d2 $ fa 2 $ s "~ sd"

d3 $ s "hh:8*8" # pan 0.5
  
d4 $ n "0 [~ 1*2] <3 4*2> [<2 ~> 3]" # s "bass:8"

d6 $ n "0 [~ 1*2] <3 4*2> [<2 ~> 3]" # s "bass:8"

d7 $ n "0 [~ 1*2] <3 4*2> [<2 ~> 3]" # s "bass:8"

d8 $ n "0 [~ 1*2] <3 4*2> [<2 ~> 3]" # s "bass:8"

d13 $ n "0 [~ 1*2] <3 4*2> [<2 ~> 3]" # s "bass:8"

hush
